!!!!SEGMENT: pl-gd--ee-1638--006-008_marenzio-luca--il-quinto-libro-de-madrigalia-a-cinque-voci-il-suo-vago-gioioso.krn
!!!cenid: 15xx:890
!!!COM: Marenzio, Luca
!!!COM-rismID:
!!!CDT: ~1553-1599/08/22
!!!CNT: Italian
!!!GTL: Il Quinto libro de madrigalia a cinque voci
!!!OTL: Il suo vago gioioso
!!!OMV: 008
!!!PDT: 1585
!!!AGN:
!!!SMS-siglum: PL-GD
!!!SMS-shelfmark: Ee 1638
!!!SMS-variant:
!!!SMS-altvar:
!!!SMS-shelfwork: 006-008 G
!!!NIFC-rismSourceID: 990039296
!!!NIFC-islandoraID: pl-gd:57883
!!!URL-pdf-islandora: https://repozytorium.nifc.pl/islandora/object/pl-gd%3A57883/datastream/PDF/view
!!!URL-scan: https://polish.musicsources.pl/pl/lokalizacje/galeria/klocki-introligatorskie/655 @EN{Scan on Polish Music Herritage in Open Access Website} @PL{Skany w portalu Dziedzictwo Muzyki Polskiej w otwartym dostępie}
!!!ONB-nifc:
!!!AIN: 1 alto 1 bass 1 soprn 1 tenor 1 vox
!!!key: D
**kern	**text	**kern	**text	**kern	**text	**kern	**text	**kern	**text
*part5	*part5	*part4	*part4	*part3	*part3	*part2	*part2	*part1	*part1
*staff5	*staff5	*staff4	*staff4	*staff3	*staff3	*staff2	*staff2	*staff1	*staff1
*I"QVINTO	*	*I"BASSO	*	*I"TENORE 	*	*I"ALTO	*	*I"CANTO	*
*I'V	*	*I'B	*	*I'T	*	*I'A	*	*I'S	*
*ICvox	*	*ICvox	*	*ICvox	*	*ICvox	*	*ICvox	*
*Ivox	*	*Ibass	*	*Itenor	*	*Ialto	*	*Isoprn	*
*clefC3	*	*clefF3	*	*clefC3	*	*clefC2	*	*clefG2	*
*k[]	*	*k[]	*	*k[]	*	*k[]	*	*k[]	*
*D:	*	*D:	*	*D:	*	*D:	*	*D:	*
*M2/1	*	*M2/1	*	*M2/1	*	*M2/1	*	*M2/1	*
*met(C)	*	*met(C)	*	*met(C)	*	*met(C)	*	*met(C)	*
=1-	=1-	=1-	=1-	=1-	=1-	=1-	=1-	=1-	=1-
!LO:TX:b:i:t=IL ſuo vago	!	!LO:TX:b:i:t=IL ſuo vago	!	!LO:TX:b:i:t=IL ſuo vago	!	!	!	!	!
0r	.	00r	.	00r	.	2.d/	IL	2r	.
.	.	.	.	.	.	.	.	2.dd\	IL
.	.	.	.	.	.	4e/	ſu-	.	.
.	.	.	.	.	.	4f\	-o	.	.
.	.	.	.	.	.	8e/	va-	4cc\	ſu-
.	.	.	.	.	.	8f\	-go	.	.
.	.	.	.	.	.	4g\	gio-	4b\	-o
.	.	.	.	.	.	4e\	-io-	8cc\	va-
.	.	.	.	.	.	.	.	8b\	-go
=2-	=2-	=2-	=2-	=2-	=2-	=2-	=2-	=2-	=2-
4r	.	.	.	.	.	8f\	-ſo e	4a/	gio-
.	.	.	.	.	.	8g\	lie-	.	.
4d\	E	.	.	.	.	8a\	.	4ff\	-io-
.	.	.	.	.	.	8b\	.	.	.
8c/	lie-	.	.	.	.	2.cc\	.	8ee\	-ſo e
8B/	.	.	.	.	.	.	.	8dd\	lie-
8A/	.	.	.	.	.	.	.	8cc\	.
8G/	.	.	.	.	.	.	.	8b\	.
4F/	.	.	.	.	.	.	.	4a/	.
4G/	-to	.	.	.	.	4b\	-to	4g/	-to
2d\	man-	.	.	.	.	2a\	man-	2f#X/	man-
=3-	=3-	=3-	=3-	=3-	=3-	=3-	=3-	=3-	=3-
!	!	!	!	!	!	!	!	!LO:SIC:v:t=custos gg	!
2G/	-to	2r	.	1d	All'-	1b	-to	1g	-to
1d	All'	1G	All'-	.	.	.	.	.	.
.	.	.	.	1.B	-hor	2r	.	1gg	All'-
!	!	!	!	!	!	!LO:SIC:v:t=custos e	!	!	!
2e\	hor	1E/	-hor	.	.	1g\	Al-	.	.
!	!	!	!	!	!	!LO:LB:g=original	!	!	!
=4-	=4-	=4-	=4-	=4-	=4-	=4-	=4-	=4-	=4-
4r	.	.	.	.	.	.	.	2ee\	-hor
2g\	All	.	.	.	.	.	.	.	.
*	*	*	*ij	*	*ij	*	*	*	*
.	.	2c\	All'-	1e	All'-	4e/	-l'hor	4r	.
!LO:SIC:v:t=custos g	!	!	!	!	!	!	!	!	!
4e\	hor	.	.	.	.	4g\	fe-	4gg\	fe-
!LO:LB:g=original	!	!	!	!	!	!	!	!	!
1r	.	1A	-hor	.	.	4a\	-con-	4cc\	-con-
.	.	.	.	.	.	4b\	-da	4dd\	-da
.	.	.	.	2a\	-hor	4cc\	ri-	4ee\	ri-
.	.	.	.	.	.	4a\	-ueſ-	4ff\	-ueſ-
*	*	*	*Xij	*	*Xij	*	*	*	*
=5-	=5-	=5-	=5-	=5-	=5-	=5-	=5-	=5-	=5-
1g	All'-	2r	.	2r	.	4b\	-te	4gg\	-te
.	.	.	.	.	.	2cc\	la	4ee\	la
.	.	4r	.	4r	.	.	.	2dd\	ter-
.	.	4G\	fe-	4g\	fe-	4b\	ter-	.	.
2e\	-hor	4A\	-con-	4c/	-con-	1cc	-ra	2cc\	-ra
.	.	4B\	-da	4d\	-da	.	.	.	.
*	*ij	*	*	*	*	*	*	*	*
2c/	All'	4c\	ri-	4e\	ri-	.	.	2r	.
.	.	4A\	-ueſ-	4f\	-ueſ-	.	.	.	.
=6-	=6-	=6-	=6-	=6-	=6-	=6-	=6-	=6-	=6-
!	!	!LO:SIC:v:t=custos g	!	!	!	!	!	!	!
1G	hor	4B\	-te	4g\	-te	1r	.	1r	.
!	!	!LO:LB:g=original	!	!LO:SIC:v:t=custos d	!	!	!	!	!
.	.	2c\	la	4e\	la	.	.	.	.
!	!	!	!	!LO:LB:g=original	!	!	!	!	!
.	.	.	.	2d\	ser-	.	.	.	.
.	.	4B\	ter-	.	.	.	.	.	.
2r	.	1c	-ra	2e\	-ra	2.g\	Il	2.ee\	Il
*	*Xij	*	*	*	*	*	*	*	*
2.g\	Il	.	.	2r	.	.	.	.	.
.	.	.	.	.	.	4a\	ſuo	4ff\	ſuo
=7-	=7-	=7-	=7-	=7-	=7-	=7-	=7-	=7-	=7-
.	.	0r	.	1r	.	4b\	va-	4gg\	va-
4f\	ſuo	.	.	.	.	8a\	-go	8cc\	-go
.	.	.	.	.	.	8b\	gio-	8dd\	gio-
4e\	va-	.	.	.	.	4cc\	-io-	4ee\	-io-
8f\	-go	.	.	.	.	4a\	-ſo e	4cc\	-ſo e
8e\	gio-	.	.	.	.	.	.	.	.
2d\	-io-	.	.	4r	.	8f\	lie-	8dd\	lie-
.	.	.	.	.	.	8g\	.	8ee\	.
.	.	.	.	4d\	e	8a\	.	8ff\	.
!	!	!	!	!	!	!LO:SIC:v:t=custos cc	!	!LO:SIC:v:t=custos ee	!
.	.	.	.	.	.	8b\	.	8dd\	.
!	!	!	!	!	!	!	!	!LO:LB:g=original	!
4g\	-ſo e	.	.	8c/	lie-	2.cc\	.	8ee\	.
.	.	.	.	8B/	.	.	.	8dd\	.
2a\	lie-	.	.	8A/	.	.	.	8cc\	.
.	.	.	.	8G/	.	.	.	8b\	.
=8-	=8-	=8-	=8-	=8-	=8-	=8-	=8-	=8-	=8-
.	.	1r	.	4F/	.	.	.	4a/	.
4g\	-to	.	.	4G/	-to	4b\	-to	4dd\	-to
2f#X\	man-	.	.	2d\	man-	2a\	man-	2dd\	man-
2g\	-to	2r	.	1G	-to	1b	-to	1dd	-to
2d\	All'	1G\	All	.	.	.	.	.	.
=9-	=9-	=9-	=9-	=9-	=9-	=9-	=9-	=9-	=9-
2B/	hor	.	.	2d\	All'-	1b	All'-	1gg	All'-
!LO:SIC:v:t=custos c	!	!	!	!	!	!	!	!	!
2g\	fe-	4D/	hor	1e	-hor	.	.	.	.
.	.	4G\	fe-	.	.	.	.	.	.
!LO:LB:g=original	!	!	!	!	!	!	!	!	!
4c/	-con-	4A\	-con-	.	.	1cc	-hor	1ee	-hor
4d\	-da	4B\	-da	.	.	.	.	.	.
4e\	ri-	4c\	ri-	2c/	All'-	.	.	.	.
4fny\	-ueſ-	4A\	-ueſ-	.	.	.	.	.	.
=10-	=10-	=10-	=10-	=10-	=10-	=10-	=10-	=10-	=10-
4g\	-te	4B\	-te	1G	-hor	2r	.	2r	.
4e\	la	2c\	la	.	.	.	.	.	.
2d\	ter-	.	.	.	.	2g\	fe-	4r	.
.	.	4B\	ter-	.	.	.	.	4dd\	fe-
2c/	-ra	2c\	-ra	1r	.	4e/	-con-	4g/	-con-
.	.	.	.	.	.	4f\	-da	4a/	-da
2r	.	2r	.	.	.	4g\	ri-	4b/	ri-
.	.	.	.	.	.	4e/	-ueſ-	4cc\	-ueſ-
=11-	=11-	=11-	=11-	=11-	=11-	=11-	=11-	=11-	=11-
1.d	All'-	2r	.	2r	.	4f#X\	-te	4dd\	-te
.	.	.	.	.	.	2g\	la	4b/	la
.	.	2d\	fe-	4r	.	.	.	2a/	ter-
.	.	.	.	4d\	fe-	4f#X\	ter-	.	.
.	.	4G\	-con-	4B/	-con-	2g\	-ra	2b/	-ra
!	!	!LO:SIC:v:t=custos b	!	!LO:SIC:v:t=custos d	!	!	!	!	!
.	.	4A\	-da	4c/	-da	.	.	.	.
!	!	!LO:LB:g=original	!	!LO:LB:g=original	!	!	!	!	!
2g\	-hor	4B\	ri-	4d\	ri-	4r	.	4r	.
.	.	4c\	-ueſ-	4e\	-ueſ-	4g\	fe-	4gg\	fe-
=12-	=12-	=12-	=12-	=12-	=12-	=12-	=12-	=12-	=12-
0r	.	2A\	-te	2e\	-te	4a\	-con-	4cc\	-con-
!	!	!	!	!	!	!	!	!LO:SIC:v:t=custos ee	!
.	.	.	.	.	.	4b\	-da	4dd\	-da
!	!	!	!	!	!	!	!	!LO:LB:g=original	!
.	.	2A\	la	2c/	la	4cc\	ri-	4ee\	ri-
!	!	!	!	!	!	!LO:SIC:v:t=custos b	!	!	!
.	.	.	.	.	.	4a\	-ue-	4ff\	-ueſ-
!	!	!	!	!	!	!LO:LB:g=original	!	!	!
.	.	1G	ter-	1g	ter-	4b\	-ſte	4gg\	-te
.	.	.	.	.	.	2cc\	la	4ee\	la
.	.	.	.	.	.	.	.	2dd\	ter-
.	.	.	.	.	.	4b\	ter-	.	.
=13-	=13-	=13-	=13-	=13-	=13-	=13-	=13-	=13-	=13-
2r	.	2C/	-ra	2g\	-ra	1cc	-ra	2ee\	-ra
2g\	Pro-	2c\	Pret-	2e\	Prer-	.	.	2cc\	Pro-
2g\	-te-	2c\	-to	2e\	-to	1r	.	2cc\	-teo
2g\	-o	2G\	laſ-	2d\	laſ-	.	.	2b-X/	laſ-
=14-	=14-	=14-	=14-	=14-	=14-	=14-	=14-	=14-	=14-
2e\	laſ-	2A\	-cio	2c#X/	-cio	0r	.	2a/	-cio
2d\	-cio	2B-X\	nel-	2d\	nel-	.	.	2g/	nel
1c#X	nel	1A	-mar	1e	-mar	.	.	2a/	mar
.	.	.	.	.	.	.	.	2ee\	tran-
=15-	=15-	=15-	=15-	=15-	=15-	=15-	=15-	=15-	=15-
2d\	mar	2D/	tran-	1r	.	1a	tran-	1.ff	-quil-
!LO:SIC:v:t=custos e	!	!	!	!	!	!	!	!	!
1d	tran-	1D	-quil-	.	.	.	.	.	.
.	.	.	.	2A/	tran-	1.a	-quil-	.	.
!LO:LB:g=original	!	!	!	!	!	!	!	!	!
2e\	-quil-	2C#X/	-le	1A/	-quil-	.	.	2ee\	-le
=16-	=16-	=16-	=16-	=16-	=16-	=16-	=16-	=16-	=16-
2f#X\	-le	0D	l'on-	.	.	.	.	0dd	l'on-
2.g\	l'on-	.	.	2G/	-le	2b-X\	-le	.	.
.	.	.	.	1A	l'on-	2a\	l'on-	.	.
8f#X\	.	.	.	.	.	.	.	.	.
8e\	.	.	.	.	.	.	.	.	.
2f#X\	.	.	.	.	.	1d/	-de	.	.
=17-	=17-	=17-	=17-	=17-	=17-	=17-	=17-	=17-	=17-
1g	-de	1G	-de	4.B/	-de	.	.	2dd\	-de
!	!	!	!	!LO:SIC:v:t=custos d	!	!	!	!	!
.	.	.	.	8cny/	.	.	.	.	.
!	!	!	!	!LO:LB:g=original	!	!	!	!	!
.	.	.	.	2d\	.	2g\	[Et]	2bny/	[Et]
2r	.	2r	.	2r	.	4.g\	Eo-	4.b/	Eo-
!	!	!	!	!	!	!	!	!LO:SIC:v:t=custos dd	!
.	.	.	.	.	.	8a\	-lo	8cc\	-lo
!	!	!	!	!	!	!	!	!LO:LB:g=original	!
4r	.	4r	.	4r	.	4bny\	diſ-	4dd\	diſ-
!	!	!LO:SIC:v:t=custos c	!	!	!	!	!	!	!
4g\	Et	4c\	Et	4e\	[Et]	4cc\	-gom-	4ee\	-gom-
!	!	!LO:LB:g=original	!	!	!	!	!	!	!
=18-	=18-	=18-	=18-	=18-	=18-	=18-	=18-	=18-	=18-
4.g\	Eo-	4.c\	Eo-	4.e\	Eo-	2cc\	-brò	2ee\	-brò
8g\	-lo	8Bny\	-lo	8d\	-lo	.	.	.	.
4a\	diſ-	4A\	diſ-	4c/	diſ-	4r	.	4r	.
4d\	-gom-	4G\	-gom-	4B/	-gom-	4g\	[Et]	4b/	Et
2d\	-brò	2G\	-brò	2B/	-brò	4.g\	Eo-	4.b/	Eo-
!	!	!	!	!	!	!LO:SIC:v:t=custos b	!	!	!
.	.	.	.	.	.	8a\	-lo	8cc\	-lo
!	!	!	!	!	!	!LO:LB:g=original	!	!	!
4r	.	4r	.	4r	.	4b\	diſ-	4dd\	diſ-
*	*ij	*	*	*	*ij	*	*	*	*
4e\	Et	4c\	Et	4g\	Et	4cc\	-gom-	4ee\	-gom-
=19-	=19-	=19-	=19-	=19-	=19-	=19-	=19-	=19-	=19-
4.e\	Eo-	4.c\	Eo-	4.g\	Eo-	2cc\	-brò	2ee\	-brò
8d\	-lo	8B\	-lo	8g\	-lo	.	.	.	.
4cny/	diſ-	4A\	diſ-	4a\	dis-	4r	.	2r	.
!LO:SIC:v:t=custos B	!	!	!	!	!	!	!	!	!
4B/	-gom-	4G\	-gom-	4d\	-gom-	4g\	l'ae-	.	.
!LO:LB:g=original	!	!	!	!	!	!	!	!	!
1B	-brò	1G	-brò	1d	-brò	4g\	-re	2gg\	l'ae-
.	.	.	.	.	.	4a\	di	.	.
.	.	.	.	.	.	2b\	piog-	4gg\	-re
.	.	.	.	.	.	.	.	4ff\	di
*	*Xij	*	*	*	*Xij	*	*	*	*
=20-	=20-	=20-	=20-	=20-	=20-	=20-	=20-	=20-	=20-
4r	.	2Cny/	l'ae-	2r	.	4g\	-gia	0ee	piog-
*	*	*	*	*	*	*	*ij	*	*
4g\	l'ae-	.	.	.	.	2cc\	l'ae-	.	.
4g\	-re	4C/	-re	2G/	l'ae-	.	.	.	.
4fny\	di	4D/	di	.	.	2b\	-re	.	.
1e	piog-	1E	piog-	4G/	-re	.	.	.	.
.	.	.	.	4A/	di	4a\	di	.	.
.	.	.	.	2B/	piog-	2g#X\	piog-	.	.
=21-	=21-	=21-	=21-	=21-	=21-	=21-	=21-	=21-	=21-
4e\	-gia	2A\	-gia	4A/	-gia	1a	-gia	2cc#X\	-gia
!	!	!	!	!LO:SIC:v:t=custos d	!	!	!	!	!
4e\	E'l	.	.	4A/	E'l	.	.	.	.
!	!	!	!	!LO:LB:g=original	!	!	!	!	!
2f#X\	ſol	4r	.	2d\	ſol	.	.	4r	.
.	.	4D/	E'l	.	.	.	.	4dd\	E'l
4r	.	2G\	ſol	2r	.	4r	.	1dd	ſol
*	*	*	*	*	*	*	*Xij	*	*
4g\	fat-	.	.	.	.	4b\	E'l	.	.
4f#X\	-ta	4r	.	2d\	fat-	2a\	ſol	.	.
!	!	!LO:SIC:v:t=custos c	!	!	!	!	!	!	!
4f#\	ſpa-	4d\	fat-	.	.	.	.	.	.
!	!	!LO:LB:g=original	!	!	!	!	!	!	!
=22-	=22-	=22-	=22-	=22-	=22-	=22-	=22-	=22-	=22-
4g\	-rir	4c\	-ta	4e\	-ta	2r	.	4r	.
4r	.	4A\	ſpa-	4f#X\	ſpa-	.	.	4a/	E'l
2r	.	4G\	-rir	4g\	-rir	4r	.	4dd\	ſol
!	!	!	!	!	!	!	!	!LO:SIC:v:t=custos cc	!
.	.	4r	.	4r	.	4d/	fat-	4dd\	fat-
!	!	!	!	!	!	!	!	!LO:LB:g=original	!
4r	.	2r	.	2r	.	4e/	-ta	4ccny\	-ta
4d\	fat-	.	.	.	.	4f#X\	ſpa-	4a/	ſpa-
4e\	-ta	4r	.	4r	.	4gny\	-rir	4g/	-rir
!	!	!	!	!	!	!LO:SIC:v:t=custos a	!	!	!
4f#X\	ſpa-	4d\	fat-	4d\	fat-	4r	.	4r	.
!	!	!	!	!	!	!LO:LB:g=original	!	!	!
=23-	=23-	=23-	=23-	=23-	=23-	=23-	=23-	=23-	=23-
4g\	-rir	4c\	-ta	4e\	-ta	1r	.	1r	.
4r	.	4A\	ſpa-	4f#X\	ſpa-	.	.	.	.
2r	.	4G\	-rir	4g\	-rir	.	.	.	.
.	.	4r	.	4r	.	.	.	.	.
!LO:SIC:v:t=custos B	!	!	!	!	!	!	!	!	!
1c	la	1A	la	0e	la	1.a	la	1ee	la
!LO:LB:g=original	!	!	!	!	!	!	!	!	!
=24-	=24-	=24-	=24-	=24-	=24-	=24-	=24-	=24-	=24-
1B	fred-	1.E	fred-	.	fred-	.	.	1.ee	fred-
.	.	.	.	.	.	1g	fred-	.	.
1g	-da	.	.	1.B	-da	.	.	.	.
.	.	2F/	-da	.	.	2fny\	-da	1dd\	-da
=25-	=25-	=25-	=25-	=25-	=25-	=25-	=25-	=25-	=25-
*	*	*	*	*	*	*lig	*	*	*
0g	ne-	0G	ne-	.	.	1e	ne-	.	ne-
.	.	.	.	2c/	ne-	.	.	2.cc\	.
.	.	.	.	1d	-ue	1d	-ue	.	.
.	.	.	.	.	.	.	.	8b/	.
.	.	.	.	.	.	.	.	8a/	.
.	.	.	.	.	.	.	.	2b/	.
*	*	*	*	*	*	*Xlig	*	*	*
=26-	=26-	=26-	=26-	=26-	=26-	=26-	=26-	=26-	=26-
2g\	-ue	2C/	-ue	2.c/	.	4.e/	.	1cc	-ue
.	.	.	.	.	.	8f\	.	.	.
2.e\	Cin	2.c\	Cin-	.	.	2g\	.	.	.
.	.	.	.	8B/	.	.	.	.	.
!	!	!	!	!LO:SIC:v:t=custos G	!	!	!	!	!
.	.	.	.	8A/	.	.	.	.	.
!	!	!	!	!LO:LB:g=original	!	!	!	!	!
.	.	.	.	1G	.	1r	.	1r	.
8d\	.	8B\	.	.	.	.	.	.	.
!	!	!LO:SIC:v:t=custos b	!	!	!	!	!	!	!
8c\	.	8A\	.	.	.	.	.	.	.
!	!	!LO:LB:g=original	!	!	!	!	!	!	!
2d\	.	2B\	.	.	.	.	.	.	.
=27-	=27-	=27-	=27-	=27-	=27-	=27-	=27-	=27-	=27-
4e\	ſe	1c	-ſe	0r	.	2r	.	2r	.
4c\	di	.	.	.	.	.	.	.	.
4.e\	biã-	.	.	.	.	2.cc\	Cin-	2.ee\	Cin-
8fny\	-chi	.	.	.	.	.	.	.	.
1g	fior	1r	.	.	.	.	.	.	.
.	.	.	.	.	.	8b\	.	8dd\	.
.	.	.	.	.	.	8a\	.	8cc\	.
.	.	.	.	.	.	2b\	.	2dd\	.
=28-	=28-	=28-	=28-	=28-	=28-	=28-	=28-	=28-	=28-
0r	.	2r	.	2r	.	4.cc\	-ſe	4ee\	-ſe
.	.	.	.	.	.	.	.	4cc\	di
.	.	.	.	.	.	16b\	.	.	.
.	.	.	.	.	.	16a\	.	.	.
.	.	2.c\	Cin-	2.e\	Cin-	2g\	.	4.ee\	bian-
!	!	!	!	!	!	!	!	!LO:SIC:v:t=custos gg	!
.	.	.	.	.	.	.	.	8ff\	-chi
!	!	!	!	!	!	!	!	!LO:LB:g=original	!
.	.	.	.	.	.	1r	.	1gg	fior
.	.	8B\	.	8d\	.	.	.	.	.
.	.	8A\	.	8c\	.	.	.	.	.
.	.	2B\	.	2d\	.	.	.	.	.
=29-	=29-	=29-	=29-	=29-	=29-	=29-	=29-	=29-	=29-
1r	.	4c\	-ſe	1e	-ſe	2r	.	2r	.
.	.	4A\	di	.	.	.	.	.	.
*	*	*	*	*	*	*	*	*	*ij
.	.	4.c\	bia-	.	.	2.a\	Cin-	2.cc\	Cin-
.	.	8d\	-chi	.	.	.	.	.	.
2r	.	1e	fior	0r	.	.	.	.	.
.	.	.	.	.	.	8g#X\	.	8b/	.
.	.	.	.	.	.	8f#X\	.	8a/	.
2e\	la	.	.	.	.	2g#X\	.	2b/	.
=30-	=30-	=30-	=30-	=30-	=30-	=30-	=30-	=30-	=30-
2e\	pa-	1A	la	.	.	4a\	-ſe	4cc\	-ſe
.	.	.	.	.	.	4e/	di	4a/	di
2f\	-tria	.	.	.	.	4.a\	bia-	4.cc\	bia-
.	.	.	.	.	.	8b\	-chi	8dd\	-chi
2e\	d'Ar-	2A\	pa-	2r	.	4cc\	fior	2ee\	fior
.	.	.	.	.	.	4a\	la	.	.
*	*	*	*	*	*ij	*	*	*	*Xij
4d\	-no	2B-X\	-tria	2.d\	Cin-	4.fny\	pa-	2r	.
2f\	Cin-	.	.	.	.	.	.	.	.
.	.	.	.	.	.	8gny\	-tria	.	.
=31-	=31-	=31-	=31-	=31-	=31-	=31-	=31-	=31-	=31-
.	.	1A	d'Ar-	.	.	1a	d'Ar-	1r	.
8e\	.	.	.	8c#X/	.	.	.	.	.
!LO:SIC:v:t=custos e	!	!	!	!	!	!	!	!	!
8d\	.	.	.	8B/	.	.	.	.	.
!LO:LB:g=original	!	!	!	!	!	!	!	!	!
2e\	.	.	.	2c#X/	.	.	.	.	.
4f\	-ſe	2D/	-no	1d	-se	1a	-no	2r	.
4d\	di	.	.	.	.	.	.	.	.
4.f\	biã-	2.d\	Cin-	.	.	.	.	2.ff\	Cin-
8g\	-chi	.	.	.	.	.	.	.	.
*	*	*	*	*	*Xij	*	*	*	*
=32-	=32-	=32-	=32-	=32-	=32-	=32-	=32-	=32-	=32-
0a	fior	.	.	2r	.	1r	.	.	.
.	.	8c#X\	.	.	.	.	.	8ee\	.
!	!	!LO:SIC:v:t=custos c#	!	!	!	!	!	!	!
.	.	8Bny\	.	.	.	.	.	8dd\	.
!	!	!LO:LB:g=original	!	!	!	!	!	!	!
.	.	2c#X\	.	4r	.	.	.	2ee\	.
.	.	.	.	4a\	di	.	.	.	.
.	.	4d\	-ſe	4.fny\	bia-	2r	.	4ff\	-ſe
.	.	4D/	di	.	.	.	.	4dd\	di
.	.	.	.	8g\	-chi	.	.	.	.
.	.	4.A\	bia-	4a\	fior	4r	.	4cc\	bian-
!	!	!	!	!	!	!	!	!LO:SIC:v:t=custos cc	!
.	.	.	.	2f\	Cin-	2a\	Cin-	4cc\	-chi
.	.	8B\	-chi	.	.	.	.	.	.
!	!	!	!	!	!	!	!	!LO:LB:g=original	!
=33-	=33-	=33-	=33-	=33-	=33-	=33-	=33-	=33-	=33-
2r	.	1cny	fior	.	.	.	.	1cc	fior
.	.	.	.	8e\	.	8g\	.	.	.
!	!	!	!	!LO:SIC:v:t=custos e	!	!	!	!	!
.	.	.	.	8d\	.	8f\	.	.	.
!	!	!	!	!LO:LB:g=original	!	!	!	!	!
4r	.	.	.	2e\	.	2g\	.	.	.
4e\	la	.	.	.	.	.	.	.	.
2e\	pa-	1A	la	4cny/	-ſe	4a\	-ſe	2r	.
!	!	!	!	!	!	!LO:SIC:v:t=custos a	!	!	!
.	.	.	.	4A/	di	4e/	di	.	.
!	!	!	!	!	!	!LO:LB:g=original	!	!	!
2f\	-tria	.	.	4.c/	bian-	4.a\	bia-	2cc\	la
.	.	.	.	8d\	-chi	8b\	-chi	.	.
=34-	=34-	=34-	=34-	=34-	=34-	=34-	=34-	=34-	=34-
2a\	d'Ar-	2A\	pa-	2e\	fior	4cc\	fior	2cc\	pa-
.	.	.	.	.	.	4a\	la	.	.
2d\	-no	2B-X\	-tria	2r	.	4f\	pa-	2dd\	-tria
.	.	.	.	.	.	4g\	-tria	.	.
2r	.	0.A	d'Ar-	1e	la	0.a	d'Ar-	4cc\	d'Ar-
.	.	.	.	.	.	.	.	4b\	.
2e\	la	.	.	.	.	.	.	4cc\	.
.	.	.	.	.	.	.	.	4dd\	.
=35-	=35-	=35-	=35-	=35-	=35-	=35-	=35-	=35-	=35-
2c#X/	pa-	.	.	2e\	pa-	.	.	2ee\	.
2d\	-tria	.	.	2f\	-tria	.	.	2.dd\	.
1e	d'Ar-	.	.	1e	d'Ar-	.	.	.	.
.	.	.	.	.	.	.	.	8cc#X\	.
.	.	.	.	.	.	.	.	8b\	.
.	.	.	.	.	.	.	.	2cc#X\	.
=36-	=36-	=36-	=36-	=36-	=36-	=36-	=36-	=36-	=36-
00f#	-no.	00D	-no.	00d	-no.	00a	-no.	00dd	-no.
==	==	==	==	==	==	==	==	==	==
*-	*-	*-	*-	*-	*-	*-	*-	*-	*-
!!!system-decoration: [(s1,s2,s3,s4,s5)]
!!!ENC: Andrzej Gręziak
!!!END: 2022-06-08
!!!ENC: Jan Barakat
!!!END: 2022-07-19
